documentation/images/write.svg

<svg width="48" height="48" viewBox="0 0 48 48" fill="none" xmlns="http://www.w3.org/2000/svg">
<path d="M24 48C37.2548 48 48 37.2548 48 24C48 10.7452 37.2548 0 24 0C10.7452 0 0 10.7452 0 24C0 37.2548 10.7452 48 24 48Z" fill="#1DA1F2"/>
<path d="M34.132 19.6522C34.132 19.0522 33.898 18.4862 33.472 18.0622L29.937 14.5262C29.087 13.6762 27.604 13.6762 26.755 14.5262L15.417 25.8642C15.094 26.1872 14.879 26.5962 14.787 27.1142L14.253 32.9302C14.233 33.1532 14.313 33.3722 14.47 33.5302C14.61 33.6722 14.802 33.7502 15 33.7502C15.023 33.7502 15.046 33.7502 15.068 33.7472L20.952 33.2032C21.402 33.1212 21.812 32.9062 22.136 32.5832L33.473 21.2432C33.898 20.8192 34.133 20.2532 34.133 19.6532L34.132 19.6522ZM16.178 28.3422L19.654 31.8182L15.829 32.1682L16.177 28.3422H16.178ZM32.413 20.1822L31.263 21.3322L26.668 16.7362L27.818 15.5862C27.958 15.4462 28.148 15.3662 28.348 15.3662C28.548 15.3662 28.736 15.4462 28.878 15.5862L32.413 19.1222C32.555 19.2642 32.633 19.4522 32.633 19.6522C32.633 19.8522 32.553 20.0422 32.413 20.1822V20.1822Z" fill="white"/>
</svg>

<svg fill="none" height="48" viewBox="0 0 48 48" width="48" xmlns="http://www.w3.org/2000/svg"><path d="m24 48c13.2548 0 24-10.7452 24-24s-10.7452-24-24-24-24 10.7452-24 24 10.7452 24 24 24z" fill="#1da1f2"/><path d="m34.132 19.6522c0-.6-.234-1.166-.66-1.59l-3.535-3.536c-.85-.85-2.333-.85-3.182 0l-11.338 11.338c-.323.323-.538.732-.63 1.25l-.534 5.816c-.02.223.06.442.217.6.14.142.332.22.53.22.023 0 .046 0 .068-.003l5.884-.544c.45-.082.86-.297 1.184-.62l11.337-11.34c.425-.424.66-.99.66-1.59zm-17.954 8.69 3.476 3.476-3.825.35.348-3.826zm16.235-8.16-1.15 1.15-4.595-4.596 1.15-1.15c.14-.14.33-.22.53-.22s.388.08.53.22l3.535 3.536c.142.142.22.33.22.53s-.08.39-.22.53z" fill="#fff"/></svg>
